src/parts/graphicShirt/Bear.svg

<svg>
  <g
    id="Clothing/Graphic-Shirt"
    transform="translate(0.000000, 170.000000)"
  >
    <defs>
      <path
        id="react-path-1153"
        d="M165.624032,29.2681342 C202.760022,32.1373245 232,63.1798426 232,101.051724 L232,110 L32,110 L32,101.051724 C32,62.8348009 61.7752018,31.5722494 99.3929298,29.1967444 C99.1342224,30.2735458 99,31.3767131 99,32.5 C99,44.3741221 113.998461,54 132.5,54 C151.001539,54 166,44.3741221 166,32.5 C166,31.4015235 165.871641,30.3222877 165.624025,29.2681336 Z"
      />
    </defs>
    <mask
      id="react-mask-1154"
      fill="white"
    >
      <use href="#react-path-1153" />
    </mask>
    <use
      id="Clothes"
      fill="#E6E6E6"
      fill-rule="evenodd"
      href="#react-path-1153"
    />
    <g
      id="Color/Palette/"
      mask="url(#react-mask-1154)"
      fill-rule="evenodd"
      fill="var(--avataaar-shirt-color)"
    >
      <rect
        id="Color"
        x="0"
        y="0"
        width="264"
        height="110"
      />
    </g>
    <g
      id="Clothing/Graphic/Bear"
      stroke-width="1"
      fill-rule="evenodd"
    >
      <defs>
        <polygon
          id="poly-1"
          points="47.8916289 0.430054064 47.8916289 41.9204613 0.45345556 41.9204613 0.45345556 0.430054064 47.8916289 0.430054064"
        />
      </defs>
      <g
        id="Group-76"
        transform="translate(77.000000, 58.000000)"
      >
        <g transform="translate(31.000000, 1.000000)">
          <mask
            id="mask1"
            fill="white"
          >
            <use href="#poly-1" />
          </mask>
          <path
            id="Fill-74"
            d="M34.4465814,31.5861741 C33.968066,34.4016565 30.3675711,38.9307388 27.2995299,35.97048 C23.8326433,32.6262918 31.5245196,31.1602447 28.7810969,28.3763859 C27.5974268,27.1761741 24.3685608,27.83928 22.7791175,27.96528 C21.289633,28.0833741 18.9133856,28.4198682 19.4834474,30.5900329 C19.9159423,32.2398918 21.1926433,31.5342918 21.8715711,32.4815153 C22.4069938,33.2301035 22.1798598,35.9887624 21.3826639,36.7492094 C20.3796124,37.7053271 19.193468,37.4123153 17.7975093,36.7996094 C14.6057567,35.39928 13.1212206,31.4868565 15.2228289,28.5829271 C19.3780454,22.8417741 35.2897979,21.5244565 34.4465814,31.5861741 M14.9853031,14.7244094 C15.9695505,14.2811859 17.132932,14.5213271 17.7173443,15.5110447 C18.5189938,16.8669035 17.3595711,18.6842682 15.7424165,18.4668565 C14.0347052,18.2365976 13.1726845,15.5481035 14.9853031,14.7244094 M32.9472,16.3787153 C32.0911175,19.3854212 27.3109113,16.0012094 30.0112825,14.08848 C31.5626227,12.9900565 33.4583753,14.5801271 32.9472,16.3787153 M47.8267052,23.16888 C47.5911588,20.7887153 46.9270763,18.5231859 45.7389526,16.4385035 C45.1164371,15.3460094 44.3464577,14.3276329 43.5492619,13.35768 C43.2483959,12.9930212 42.6432,12.34968 42.5264165,12.1446212 C41.8173031,10.90488 41.888066,11.7834212 42.2789938,10.3598682 C42.8950763,8.11657412 44.2262103,6.28043294 43.1627876,3.87062118 C42.1735918,1.62930353 39.5078598,0.576832941 37.1791175,0.443915294 C36.0914474,0.382150588 35.0017979,0.525938824 33.9720247,0.892574118 C32.9368082,1.26069176 31.9708701,2.53255059 31.0717361,2.79393882 C30.3740041,2.99702118 28.3872,2.33391529 27.6305814,2.28549176 C26.2356124,2.19605647 24.8332206,2.23558588 23.4387464,2.31859765 C21.8087258,2.41544471 18.0632412,3.58205647 16.5257567,3.19565647 C15.5108289,2.94069176 14.3172619,1.41485647 13.1449732,1.03191529 C11.852932,0.610432941 10.4673649,0.467632941 9.17829278,0.954338824 C6.89260206,1.81805647 5.17845773,4.50605647 5.12501443,6.89560941 C5.09680825,8.15066824 5.78018969,9.01092706 5.91528247,10.1469035 C6.11816907,11.8619859 6.35223093,10.5026682 5.42835464,11.8718682 C4.9577567,12.5690682 4.13284948,13.1822682 3.60385979,13.8537741 C0.778787629,17.4405741 -0.278696907,22.73208 0.974746392,27.0733976 C4.13284948,38.0131624 14.6423753,42.4676329 25.4136742,41.86728 C34.6648082,41.3509271 48.9782103,34.1491624 47.8267052,23.16888"
            fill="#FFFFFF"
          />
        </g>
      </g>
    </g>
  </g>
</svg>

<svg>
  <g id="Clothing/Graphic-Shirt" transform="translate(0 170)">
    <defs>
      <path id="react-path-1153" d="M165.624 29.268C202.76 32.138 232 63.18 232 101.052V110H32v-8.948c0-38.217 29.775-69.48 67.393-71.855A14.107 14.107 0 0 0 99 32.5C99 44.374 113.998 54 132.5 54c18.502 0 33.5-9.626 33.5-21.5 0-1.098-.128-2.178-.376-3.232Z"/>
    </defs>
    <mask id="react-mask-1154" fill="#fff">
      <use href="#react-path-1153"/>
    </mask>
    <use id="Clothes" fill="#E6E6E6" fill-rule="evenodd" href="#react-path-1153"/>
    <g id="Color/Palette/" fill="var(--avataaar-shirt-color)" fill-rule="evenodd" mask="url(#react-mask-1154)">
      <path id="Color" d="M0 0h264v110H0z"/>
    </g>
    <g id="Clothing/Graphic/Bear" fill-rule="evenodd" stroke-width="1">
      <defs>
        <path id="poly-1" d="M47.892.43v41.49H.453V.43h47.439z"/>
      </defs>
      <g id="Group-76" transform="translate(108 59)">
        <mask id="mask1" fill="#fff">
          <use href="#poly-1"/>
        </mask>
        <path id="Fill-74" fill="#FFF" d="M34.447 31.586c-.479 2.816-4.08 7.345-7.147 4.384-3.467-3.344 4.225-4.81 1.481-7.594-1.184-1.2-4.412-.537-6.002-.41-1.49.117-3.866.454-3.296 2.624.433 1.65 1.71.944 2.389 1.892.535.748.308 3.507-.49 4.267-1.002.956-2.189.663-3.584.05-3.192-1.4-4.677-5.312-2.575-8.216 4.155-5.741 20.067-7.059 19.224 3.003M14.985 14.724c.985-.443 2.148-.203 2.732.787.802 1.356-.357 3.173-1.975 2.956-1.707-.23-2.57-2.919-.757-3.743m17.962 1.655c-.856 3.006-5.636-.378-2.936-2.29 1.552-1.099 3.447.491 2.936 2.29m14.88 6.79c-.236-2.38-.9-4.646-2.088-6.73-.623-1.093-1.393-2.111-2.19-3.081-.3-.365-.906-1.008-1.023-1.213-.709-1.24-.638-.362-.247-1.785.616-2.243 1.947-4.08.884-6.49-.99-2.24-3.655-3.293-5.984-3.426a8.167 8.167 0 0 0-3.207.449c-1.035.368-2.001 1.64-2.9 1.9-.698.204-2.685-.46-3.441-.508-1.395-.089-2.798-.05-4.192.034-1.63.096-5.376 1.263-6.913.877-1.015-.255-2.209-1.781-3.381-2.164C11.853.61 10.467.468 9.178.954c-2.285.864-4 3.552-4.053 5.942-.028 1.255.655 2.115.79 3.25.203 1.716.437.357-.487 1.726-.47.697-1.295 1.31-1.824 1.982C.779 17.44-.28 22.732.974 27.074c3.159 10.94 13.668 15.394 24.44 14.793 9.25-.516 23.564-7.718 22.413-18.698"/>
      </g>
    </g>
  </g>
</svg>
